images_sukapura_svg/cmd/sc_toolbarmode.svg

<svg height="16" viewBox="0 0 16 16" width="16" xmlns="http://www.w3.org/2000/svg" xmlns:xlink="http://www.w3.org/1999/xlink"><linearGradient id="a" gradientUnits="userSpaceOnUse" x1="8" x2="8" y1="2" y2="4"><stop offset="0" stop-color="#c8c8cb"/><stop offset="1" stop-color="#98989d"/></linearGradient><path d="m1 2v12h6.5859375l7.4140625-7.4140625v-4.5859375z" fill="#fff"/><path d="m1 1c-.554 0-1 .446-1 1v3 4.9941406 1.0058594 3c0 .554.446 1 1 1h5.5859375l1-1h-6.5859375v-3-1.5859375-4.4140625-3h5 1.5859375 2.4140625 5v1.4140625 1.5859375 1.5859375l.292969-.2929687c.180274-.1805263.422724-.2853288.677734-.2929688.0104-.0003038.018957.0058494.029297.0058594v-1.0058594-1.0058594-1.9941406c-.000003-.554-.446-1-1-1h-5-.5859375-3.4140625z" fill="#929292"/><path d="m1 2h14v2h-14z" fill="url(#a)"/><path d="m15.5 5-9.5 10.5h9.5zm-2 5.5v.976392 2.023608h-2-.5z" fill="#fc0" fill-rule="evenodd" stroke="#c89e00"/><path d="m1 4h14v1h-14z" fill="#929292"/></svg>

<?xml version="1.0" encoding="UTF-8" standalone="no"?>
<svg
   xmlns:dc="http://purl.org/dc/elements/1.1/"
   xmlns:cc="http://creativecommons.org/ns#"
   xmlns:rdf="http://www.w3.org/1999/02/22-rdf-syntax-ns#"
   xmlns:svg="http://www.w3.org/2000/svg"
   xmlns="http://www.w3.org/2000/svg"
   xmlns:xlink="http://www.w3.org/1999/xlink"
   xmlns:sodipodi="http://sodipodi.sourceforge.net/DTD/sodipodi-0.dtd"
   xmlns:inkscape="http://www.inkscape.org/namespaces/inkscape"
   viewBox="0 0 16 16"
   version="1.1"
   id="svg30"
   sodipodi:docname="sc_toolbarmode.svg"
   inkscape:export-filename="/home/rizmut/Dokumen/Rizmut/Github/libreoffice-style-sukapura/images_sukapura/cmd/sc_toolbarmode.png"
   inkscape:export-xdpi="96"
   inkscape:export-ydpi="96"
   inkscape:version="0.92.3 (unknown)"
   width="16"
   height="16">
  <metadata
     id="metadata36">
    <rdf:RDF>
      <cc:Work
         rdf:about="">
        <dc:format>image/svg+xml</dc:format>
        <dc:type
           rdf:resource="http://purl.org/dc/dcmitype/StillImage" />
        <dc:title></dc:title>
      </cc:Work>
    </rdf:RDF>
  </metadata>
  <defs
     id="defs34">
    <linearGradient
       inkscape:collect="always"
       id="linearGradient2929">
      <stop
         style="stop-color:#c8c8cb;stop-opacity:1;"
         offset="0"
         id="stop2925" />
      <stop
         style="stop-color:#98989d;stop-opacity:1"
         offset="1"
         id="stop2927" />
    </linearGradient>
    <linearGradient
       inkscape:collect="always"
       xlink:href="#linearGradient2929"
       id="linearGradient1554"
       x1="8"
       y1="2"
       x2="8"
       y2="4"
       gradientUnits="userSpaceOnUse" />
  </defs>
  <sodipodi:namedview
     pagecolor="#ffffff"
     bordercolor="#666666"
     borderopacity="1"
     objecttolerance="10"
     gridtolerance="10"
     guidetolerance="10"
     inkscape:pageopacity="0"
     inkscape:pageshadow="2"
     inkscape:window-width="1366"
     inkscape:window-height="699"
     id="namedview32"
     showgrid="true"
     inkscape:zoom="13.906433"
     inkscape:cx="2.0396136"
     inkscape:cy="5.8404648"
     inkscape:window-x="0"
     inkscape:window-y="0"
     inkscape:window-maximized="1"
     inkscape:current-layer="svg30"
     showguides="false">
    <inkscape:grid
       type="xygrid"
       id="grid843"
       spacingx="0.5"
       spacingy="0.5"
       empspacing="2" />
  </sodipodi:namedview>
  <path
     inkscape:connector-curvature="0"
     style="fill:#ffffff"
     d="M 1,2 V 14 H 7.5859375 L 15,6.5859375 V 2 Z"
     id="path2-3" />
  <path
     style="fill:#929292;fill-opacity:1"
     d="M 1 1 C 0.446 1 0 1.446 0 2 L 0 5 L 0 9.9941406 L 0 11 L 0 14 C 0 14.554 0.446 15 1 15 L 6.5859375 15 L 7.5859375 14 L 1 14 L 1 11 L 1 9.4140625 L 1 5 L 1 2 L 6 2 L 7.5859375 2 L 10 2 L 15 2 L 15 3.4140625 L 15 5 L 15 6.5859375 L 15.292969 6.2929688 C 15.473243 6.1124425 15.715693 6.00764 15.970703 6 C 15.981103 5.9996962 15.98966 6.0058494 16 6.0058594 L 16 5 L 16 3.9941406 L 16 2 C 15.999997 1.446 15.554 1 15 1 L 10 1 L 9.4140625 1 L 6 1 L 1 1 z "
     id="path4" />
  <path
     inkscape:connector-curvature="0"
     style="fill:url(#linearGradient1554);fill-opacity:1"
     d="M 1,2 H 15 V 4 H 1 Z"
     id="path6"
     sodipodi:nodetypes="ccccc" />
  <path
     inkscape:connector-curvature="0"
     style="fill:#ffcc00;fill-opacity:1;fill-rule:evenodd;stroke:#c89e00;stroke-opacity:1"
     d="M 15.5,5 6,15.5 h 9.5 z m -2,5.5 V 11.476392 13.5 h -2 -0.5 z"
     id="path8"
     sodipodi:nodetypes="cccccccccc" />
  <rect
     style="opacity:1;fill:#929292;fill-opacity:1;stroke:none;stroke-width:2.16024685;stroke-linecap:round;stroke-linejoin:round;stroke-miterlimit:4;stroke-dasharray:none;stroke-opacity:1"
     id="rect867"
     width="14"
     height="1"
     x="1"
     y="4" />
</svg>
